packages/components/icon/src/assets/icons/calendar.svg

<svg viewBox="0 0 24 24" fill="none" xmlns="http://www.w3.org/2000/svg"><path fill-rule="evenodd" clip-rule="evenodd" d="M14 4v2h-4V4H8v2H4v14h16V6h-4V4h-2Zm-8 8v6h12v-6H6Zm0-2h12V8H6v2Z" fill="currentColor"/></svg>

<svg width="24" height="24" viewBox="0 0 24 24" fill="none" xmlns="http://www.w3.org/2000/svg">
<path fill-rule="evenodd" clip-rule="evenodd" d="M14 4V6H10V4H8V6H4V20H20V6H16V4H14ZM6 12V18H18V12H6ZM6 10H18V8H6V10Z" fill="currentColor"/>
</svg>
